src/dark/hiso font dark_m.svg

<svg xmlns="http://www.w3.org/2000/svg" width="90" height="126" viewBox="0 0 90 126"><path fill="#000101" d="M36 9l-14.4 28.8-21.6-10.8v72l36 18v-36l36 18v-72l-36-18zm-33 88.15v-65.3l30 15v65.3l-30-15zm51-34.15v3.35l-18-9v-3.35l18 9-18-18-11.71-5.86 13.06-26.11 33.31 16.65-16.66 33.32z"/></svg>

<svg xmlns="http://www.w3.org/2000/svg" width="90" height="126"><path fill="#000101" d="M36 9L21.6 37.8 0 27v72l36 18V81l36 18V27L36 9zM3 97.15v-65.3l30 15v65.3l-30-15zM54 63v3.35l-18-9V54l18 9-18-18-11.71-5.86 13.06-26.11 33.31 16.65L54 63z"/></svg>
